X: 140
T: Clear the Way, I Come
C: Teton Sioux band 1911-1914
N: Derived from sioux136.krn
O: South Dakota, U.S.A.
N: Teton Sioux Music by Frances Densmore, 1918
Z: transcribed to **kern format by Craig Sapp
L: 1/8
M: 3/4
Q: 1/4=58
K: C clef=bass
%%linebreak <none>
E3/ E/ [I:setbarnb 1]| 
(E4C3/) E/ | 
D< D C> A, A,3/ A,/ ||  
[M:2/4]A,4 ||  
[M:3/4]A,4 ]|:  
C3/ C/ [I:setbarnb 5]| 
(D2>A,2) A,3/ D/ | 
D< D C> A, A,3/ A,/ | 
A,4-A, C/ C/ ||  
[M:2/4]C> C (3E (C A,) | 
G,> G, G,/ G,3/ | 
G,> E, E,3/ E,/ | 
E,4- | 
E,2E,3/ E,/ ||  
[M:3/4]E,2>C,2 C,3/ E,/ | 
D,< D, C,> A,, A,,3/ A,,/ ||  
[M:2/4]A,,4 ||  
[M:3/4]A,,4 :|]  



